fs/lock_closed_12_regular.svg

<svg viewBox="0 0 12 12" fill="none" xmlns="http://www.w3.org/2000/svg" height="1em" width="1em">
  <path d="M4 4V3C4 1.89543 4.89543 1 6 1C7.10457 1 8 1.89543 8 3V4H9C9.55228 4 10 4.44772 10 5V10C10 10.5523 9.55228 11 9 11H3C2.44772 11 2 10.5523 2 10V5C2 4.44772 2.44772 4 3 4H4ZM5 3V4H7V3C7 2.44772 6.55228 2 6 2C5.44772 2 5 2.44772 5 3ZM3 10H9V5H3V10Z" fill="#212121"/>
</svg>

<svg viewBox="0 0 12 12" fill="none" xmlns="http://www.w3.org/2000/svg" height="1em" width="1em">
  <path d="M4 4V3a2 2 0 1 1 4 0v1h1a1 1 0 0 1 1 1v5a1 1 0 0 1-1 1H3a1 1 0 0 1-1-1V5a1 1 0 0 1 1-1h1Zm1-1v1h2V3a1 1 0 0 0-2 0Zm-2 7h6V5H3v5Z" fill="#212121"/>
</svg>
